src/img/projects/public-api-search.svg

<?xml version="1.0" encoding="UTF-8"?>
<svg width="134px" height="116px" viewBox="0 0 134 116" version="1.1" xmlns="http://www.w3.org/2000/svg" xmlns:xlink="http://www.w3.org/1999/xlink">
    <!-- Generator: Sketch 50.2 (55047) - http://www.bohemiancoding.com/sketch -->
    <title>Artboard</title>
    <desc>Created with Sketch.</desc>
    <defs></defs>
    <g id="Artboard" stroke="none" stroke-width="1" fill="none" fill-rule="evenodd">
        <g id="public-api-search" transform="translate(11.000000, 9.000000)" fill="#FFFFFF" fill-rule="nonzero">
            <path d="M102.205385,0 L8.53846154,0 C3.82279944,-2.9112618e-16 5.77502049e-16,3.85424433 0,8.60869565 L0,74.1208696 C5.77502049e-16,78.8753209 3.82279944,82.7295652 8.53846154,82.7295652 L43.0765385,82.7295652 L39.6042308,95.1547826 L33.9119231,95.1547826 C33.1259794,95.1547826 32.4888462,95.7971567 32.4888462,96.5895652 C32.4888462,97.3819738 33.1259794,98.0243478 33.9119231,98.0243478 L76.8461538,98.0243478 C77.6320975,98.0243478 78.2692308,97.3819738 78.2692308,96.5895652 C78.2692308,95.7971567 77.6320975,95.1547826 76.8461538,95.1547826 L71.1538462,95.1547826 L67.6957692,82.7295652 L102.205385,82.7295652 C106.921047,82.7295652 110.743846,78.8753209 110.743846,74.1208696 L110.743846,8.60869565 C110.743846,3.85424433 106.921047,2.9112618e-16 102.205385,0 Z M68.2080769,95.1691304 L42.5926923,95.1691304 L46.065,82.743913 L64.7357692,82.743913 L68.2080769,95.1691304 Z M107.911923,74.1208696 C107.911923,77.2905038 105.36339,79.86 102.219615,79.86 L8.53846154,79.86 C5.39468681,79.86 2.84615385,77.2905038 2.84615385,74.1208696 L2.84615385,8.60869565 C2.84615385,5.43906144 5.39468681,2.86956522 8.53846154,2.86956522 L102.205385,2.86956522 C105.349159,2.86956522 107.897692,5.43906144 107.897692,8.60869565 L107.911923,74.1208696 Z" id="Shape"></path>
            <path d="M101.038462,10.143913 L9.70538462,10.143913 C8.91944093,10.143913 8.28230769,10.7862871 8.28230769,11.5786957 C8.28230769,12.3711042 8.91944093,13.0134783 9.70538462,13.0134783 L101.038462,13.0134783 C101.824405,13.0134783 102.461538,12.3711042 102.461538,11.5786957 C102.461538,10.7862871 101.824405,10.143913 101.038462,10.143913 Z M101.038462,67.4347826 L9.70538462,67.4347826 C8.91944093,67.4347826 8.28230769,68.0771567 8.28230769,68.8695652 C8.28230769,69.6619738 8.91944093,70.3043478 9.70538462,70.3043478 L101.038462,70.3043478 C101.824405,70.3043478 102.461538,69.6619738 102.461538,68.8695652 C102.461538,68.0771567 101.824405,67.4347826 101.038462,67.4347826 Z" id="Shape"></path>
            <ellipse id="Oval" cx="55.3861538" cy="75.1826087" rx="2.13461538" ry="2.15217391"></ellipse>
            <path d="M101.038462,18.3365217 L89.0703846,18.3365217 L78.625,28.8821739 L74,28.8821739 L74,24.0613043 L36.7580769,24.0613043 L36.7580769,28.8821739 L32.1330769,28.8821739 L21.6876923,18.3365217 L9.70538462,18.3365217 C8.91944093,18.3365217 8.28230769,18.9788958 8.28230769,19.7713043 C8.28230769,20.5637129 8.91944093,21.206087 9.70538462,21.206087 L20.5065385,21.206087 L30.9519231,31.7517391 L36.7580769,31.7517391 L36.7580769,38.3086957 L9.71961538,38.3086957 C8.9336717,38.3086957 8.29653846,38.9510697 8.29653846,39.7434783 C8.29653846,40.5358868 8.9336717,41.1782609 9.71961538,41.1782609 L36.7580769,41.1782609 L36.7580769,49.0265217 L30.9519231,49.0265217 L20.5065385,59.5578261 L9.70538462,59.5578261 C8.91944093,59.5578261 8.28230769,60.2002001 8.28230769,60.9926087 C8.28230769,61.7850172 8.91944093,62.4273913 9.70538462,62.4273913 L21.6876923,62.4273913 L32.1330769,51.896087 L36.7580769,51.896087 L36.7580769,56.7169565 L74,56.7169565 L74,51.896087 L78.625,51.896087 L89.0703846,62.4273913 L101.038462,62.4273913 C101.824405,62.4273913 102.461538,61.7850172 102.461538,60.9926087 C102.461538,60.2002001 101.824405,59.5578261 101.038462,59.5578261 L90.2515385,59.5578261 L79.8061538,49.0265217 L74,49.0265217 L74,42.4695652 L101.038462,42.4695652 C101.824405,42.4695652 102.461538,41.8271912 102.461538,41.0347826 C102.461538,40.2423741 101.824405,39.6 101.038462,39.6 L74,39.6 L74,31.7517391 L79.8061538,31.7517391 L90.2515385,21.206087 L101.038462,21.206087 C101.824405,21.206087 102.461538,20.5637129 102.461538,19.7713043 C102.461538,18.9788958 101.824405,18.3365217 101.038462,18.3365217 Z M71.1538462,53.8473913 L39.6042308,53.8473913 L39.6042308,26.9308696 L71.1538462,26.9308696 L71.1538462,53.8473913 Z" id="Shape"></path>
            <path d="M101.038462,49.0265217 L91.0769231,49.0265217 C90.2909794,49.0265217 89.6538462,49.6688958 89.6538462,50.4613043 C89.6538462,51.2537129 90.2909794,51.896087 91.0769231,51.896087 L101.038462,51.896087 C101.824405,51.896087 102.461538,51.2537129 102.461538,50.4613043 C102.461538,49.6688958 101.824405,49.0265217 101.038462,49.0265217 Z M101.038462,28.8821739 L91.0769231,28.8821739 C90.2909794,28.8821739 89.6538462,29.524548 89.6538462,30.3169565 C89.6538462,31.1093651 90.2909794,31.7517391 91.0769231,31.7517391 L101.038462,31.7517391 C101.824405,31.7517391 102.461538,31.1093651 102.461538,30.3169565 C102.461538,29.524548 101.824405,28.8821739 101.038462,28.8821739 Z M9.70538462,31.7517391 L19.6669231,31.7517391 C20.4528668,31.7517391 21.09,31.1093651 21.09,30.3169565 C21.09,29.524548 20.4528668,28.8821739 19.6669231,28.8821739 L9.70538462,28.8821739 C8.91944093,28.8821739 8.28230769,29.524548 8.28230769,30.3169565 C8.28230769,31.1093651 8.91944093,31.7517391 9.70538462,31.7517391 Z M9.70538462,51.896087 L19.6669231,51.896087 C20.4528668,51.896087 21.09,51.2537129 21.09,50.4613043 C21.09,49.6688958 20.4528668,49.0265217 19.6669231,49.0265217 L9.70538462,49.0265217 C8.91944093,49.0265217 8.28230769,49.6688958 8.28230769,50.4613043 C8.28230769,51.2537129 8.91944093,51.896087 9.70538462,51.896087 Z M60.7653846,43.7752174 C63.0217654,40.4482186 62.3946274,35.9362218 59.3181135,33.3627048 C56.2415997,30.7891879 51.7275509,31.00056 48.9008655,33.8504966 C46.0741802,36.7004332 45.8645325,41.2516129 48.4170534,44.3534329 C50.9695743,47.455253 55.4447599,48.0875496 58.7446154,45.8126087 L61.5907692,48.6821739 C61.8569863,48.9560103 62.2208424,49.1110169 62.6011538,49.1126087 C62.9814653,49.1110169 63.3453214,48.9560103 63.6115385,48.6821739 C64.163299,48.122555 64.163299,47.2187494 63.6115385,46.6591304 L60.7653846,43.7752174 Z M50.9461538,42.8569565 C50.0269801,41.9402791 49.5138368,40.6882578 49.5230769,39.3847826 C49.522975,36.6676948 51.6951814,34.4584095 54.39,34.4347826 C55.6828408,34.4254665 56.9246474,34.9428307 57.8338462,35.8695652 C58.7476094,36.7898961 59.2597729,38.039527 59.2569231,39.3417391 C59.2661632,40.6452144 58.7530199,41.8972356 57.8338462,42.813913 C55.9223469,44.6917775 52.8805948,44.7107864 50.9461538,42.8569565 Z" id="Shape"></path>
        </g>
    </g>
</svg>

<svg width="134" height="116" xmlns="http://www.w3.org/2000/svg">
    <g transform="translate(11 9)" fill="#FFF">
        <path d="M102.205 0H8.538C3.823 0 0 3.854 0 8.609V74.12c0 4.754 3.823 8.609 8.538 8.609h34.539l-3.473 12.425h-5.692c-.786 0-1.423.642-1.423 1.435 0 .792.637 1.434 1.423 1.434h42.934c.786 0 1.423-.642 1.423-1.434 0-.793-.637-1.435-1.423-1.435h-5.692L67.696 82.73h34.51c4.715 0 8.538-3.855 8.538-8.61V8.61c0-4.755-3.823-8.609-8.539-8.609zM68.208 95.17H42.593l3.472-12.426h18.67l3.473 12.425zm39.704-21.05c0 3.17-2.549 5.74-5.692 5.74H8.538c-3.143 0-5.692-2.57-5.692-5.74V8.61c0-3.17 2.549-5.74 5.692-5.74h93.667c3.144 0 5.693 2.57 5.693 5.74l.014 65.512z"/>
        <path d="M101.038 10.144H9.705c-.786 0-1.423.642-1.423 1.435 0 .792.637 1.434 1.423 1.434h91.333a1.43 1.43 0 0 0 1.424-1.434 1.43 1.43 0 0 0-1.424-1.435zm0 57.29H9.705a1.43 1.43 0 0 0-1.423 1.436c0 .792.637 1.434 1.423 1.434h91.333a1.43 1.43 0 0 0 1.424-1.434 1.43 1.43 0 0 0-1.424-1.435z"/>
        <ellipse cx="55.386" cy="75.183" rx="2.135" ry="2.152"/>
        <path d="M101.038 18.337H89.07L78.625 28.882H74v-4.82H36.758v4.82h-4.625L21.688 18.337H9.705c-.786 0-1.423.642-1.423 1.434 0 .793.637 1.435 1.423 1.435h10.802l10.445 10.546h5.806v6.557H9.72c-.786 0-1.423.642-1.423 1.434 0 .793.637 1.435 1.423 1.435h27.038v7.849h-5.806l-10.445 10.53H9.705a1.43 1.43 0 0 0-1.423 1.436c0 .792.637 1.434 1.423 1.434h11.983l10.445-10.53h4.625v4.82H74v-4.82h4.625l10.445 10.53h11.968a1.43 1.43 0 0 0 1.424-1.434 1.43 1.43 0 0 0-1.424-1.435H90.252L79.806 49.027H74V42.47h27.038a1.43 1.43 0 0 0 1.424-1.435 1.43 1.43 0 0 0-1.424-1.435H74v-7.848h5.806l10.446-10.546h10.786a1.43 1.43 0 0 0 1.424-1.435 1.43 1.43 0 0 0-1.424-1.434zm-29.884 35.51h-31.55V26.931h31.55v26.916z"/>
        <path d="M101.038 49.027h-9.961c-.786 0-1.423.642-1.423 1.434 0 .793.637 1.435 1.423 1.435h9.961a1.43 1.43 0 0 0 1.424-1.435 1.43 1.43 0 0 0-1.424-1.434zm0-20.145h-9.961c-.786 0-1.423.643-1.423 1.435s.637 1.435 1.423 1.435h9.961c.786 0 1.424-.643 1.424-1.435s-.638-1.435-1.424-1.435zm-91.333 2.87h9.962c.786 0 1.423-.643 1.423-1.435s-.637-1.435-1.423-1.435H9.705c-.786 0-1.423.643-1.423 1.435s.637 1.435 1.423 1.435zm0 20.144h9.962c.786 0 1.423-.642 1.423-1.435 0-.792-.637-1.434-1.423-1.434H9.705c-.786 0-1.423.642-1.423 1.434 0 .793.637 1.435 1.423 1.435zm51.06-8.12c2.257-3.328 1.63-7.84-1.447-10.413a7.695 7.695 0 0 0-10.417.487c-2.827 2.85-3.036 7.402-.484 10.503a7.698 7.698 0 0 0 10.328 1.46l2.846 2.87c.266.273.63.428 1.01.43a1.443 1.443 0 0 0 1.01-2.453l-2.846-2.885zm-9.819-.919a4.855 4.855 0 0 1-1.423-3.472c0-2.717 2.172-4.927 4.867-4.95a4.776 4.776 0 0 1 3.444 1.435 4.913 4.913 0 0 1 1.423 3.472 4.855 4.855 0 0 1-1.423 3.472 4.937 4.937 0 0 1-6.888.043z"/>
    </g>
</svg>
